packages/core/src/svgs/tokens/branded/TXAU.svg

<svg width="24" height="24" viewBox="0 0 24 24" fill="none" xmlns="http://www.w3.org/2000/svg">
<path fill-rule="evenodd" clip-rule="evenodd" d="M21.4117 12C21.4117 14.4961 20.4202 16.89 18.6551 18.6551C16.8901 20.4202 14.4961 21.4117 12 21.4117C9.5039 21.4117 7.10991 20.4202 5.34487 18.6551C3.57983 16.89 2.58823 14.4961 2.58823 12C2.58823 9.50377 3.57983 7.10991 5.34487 5.34487C7.10991 3.57982 9.5039 2.58823 12 2.58823C14.4961 2.58823 16.8901 3.57982 18.6551 5.34487C20.4202 7.10991 21.4117 9.50377 21.4117 12ZM22 12C22 14.6522 20.9464 17.1957 19.0711 19.071C17.1957 20.9464 14.6522 22 12 22C9.34784 22 6.80429 20.9464 4.92892 19.071C3.05357 17.1957 2 14.6522 2 12C2 9.34785 3.05357 6.80429 4.92892 4.92892C6.80429 3.05357 9.34784 2 12 2C14.6522 2 17.1957 3.05357 19.0711 4.92892C20.9464 6.80429 22 9.34785 22 12ZM12.5883 17.2941V16.1177H11.4117C9.99994 16.1177 9.64705 14.9411 9.64705 14.353V9.05881C9.64705 8.11764 10.8235 7.88234 11.4117 7.88234H12.5883C14 7.88234 14.353 9.05881 14.353 9.64707V10.2353H16.1177V9.05881C16.1177 7.17645 13.7647 6.70588 12.5883 6.70588H11.4117C8.58823 6.70588 7.88234 8.27646 7.88234 9.05881V14.353C7.88234 16.7058 10.2353 17.2941 11.4117 17.2941H12.5883ZM16.1177 12H12V13.1764H14.353V17.2941H16.1177V12Z" fill="#E3BA4F"/>
</svg>

<svg xmlns="http://www.w3.org/2000/svg" width="24" height="24" fill="none" viewBox="0 0 24 24">
    <path fill="#E3BA4F" fill-rule="evenodd" d="M21.412 12a9.412 9.412 0 1 1-18.824 0 9.412 9.412 0 0 1 18.824 0M22 12a10 10 0 1 1-20 0 10 10 0 0 1 20 0m-9.412 5.294v-1.176h-1.176c-1.412 0-1.765-1.177-1.765-1.765V9.059c0-.941 1.176-1.177 1.765-1.177h1.176c1.412 0 1.765 1.177 1.765 1.765v.588h1.765V9.06c0-1.883-2.353-2.353-3.53-2.353h-1.176c-2.824 0-3.53 1.57-3.53 2.353v5.294c0 2.353 2.353 2.941 3.53 2.941zM16.118 12H12v1.176h2.353v4.118h1.765z" clip-rule="evenodd"/>
</svg>
